icons/organization-chart.svg

<svg viewBox="0 0 24 24" fill="currentColor" xmlns="http://www.w3.org/2000/svg"><path d="M15 3C15.5523 3 16 3.44772 16 4V8C16 8.55228 15.5523 9 15 9H13V11H17C17.5523 11 18 11.4477 18 12V15H20C20.5523 15 21 15.4477 21 16V20C21 20.5523 20.5523 21 20 21H14C13.4477 21 13 20.5523 13 20V16C13 15.4477 13.4477 15 14 15H16V13H8V15H10C10.5523 15 11 15.4477 11 16V20C11 20.5523 10.5523 21 10 21H4C3.44772 21 3 20.5523 3 20V16C3 15.4477 3.44772 15 4 15H6V12C6 11.4477 6.44772 11 7 11H11V9H9C8.44772 9 8 8.55228 8 8V4C8 3.44772 8.44772 3 9 3H15ZM9 17H5V19H9V17ZM19 17H15V19H19V17ZM14 5H10V7H14V5Z"/></svg>

<svg xmlns="http://www.w3.org/2000/svg" viewBox="0 0 24 24">
    <g>
        <path fill="none" d="M0 0H24V24H0z"/>
        <path d="M15 3c.552 0 1 .448 1 1v4c0 .552-.448 1-1 1h-2v2h4c.552 0 1 .448 1 1v3h2c.552 0 1 .448 1 1v4c0 .552-.448 1-1 1h-6c-.552 0-1-.448-1-1v-4c0-.552.448-1 1-1h2v-2H8v2h2c.552 0 1 .448 1 1v4c0 .552-.448 1-1 1H4c-.552 0-1-.448-1-1v-4c0-.552.448-1 1-1h2v-3c0-.552.448-1 1-1h4V9H9c-.552 0-1-.448-1-1V4c0-.552.448-1 1-1h6zM9 17H5v2h4v-2zm10 0h-4v2h4v-2zM14 5h-4v2h4V5z"/>
    </g>
</svg>
